X: 9098
T: Mary Josephine's (with piano acc.)
C: BB
M: C|
L: 1/8
Q: 1/8=320
R: hornpipe
V: 1 program 1 105 %banjo
V: 2 volume=70 clef=bass m=D program 1 00
K: D
[V:1] AG|"D"FDFA "G"GFGE|"D"DFAd "Bm"fedB|"D"AFdF "Bm7"AFBF|"D"AFDF "A7"E2 AG|
[V:2] z2|D,2[A2D2F2]G,,2[G2B2D2]|D,2[A2D2F2]B,,2[F2B2D2]|D,2[A2D2F2]B,,2[F2B2D2]|\
D,2[A2D2F2]A,,2[G2C2E2]|
%
[V:1] "D"FDFA "G"GFGE|"D"DFAd fgfe|"D"dcdA "A"(3Bcd AG|"D"F2 "G"D2 "D"D2 :|
[V:2] D,2[A2D2F2]G,,2[G2B2D2]|D,2[A2D2F2]A,,2[A2D2F2]|\
D,2[A2D2F2]A,,2[G2C2E2]|[D,2F,2A,2][G,2B,2D2][D,2F,2A,2]:|
%
[V:1] zA|"Bm"DBAF "Em"EDEF|"D"Afed "Bm"BABc|"D"df (3fef "Bm"afbf|"F#m"afec "A"A2 ce|
[V:2] z2|B,,2[F2B2D2]E,2[E2B2G2]|D,2[A2D2F2]B,,2[F2B2D2]|D,2[A2D2F2]B,,2[F2B2D2]|\
F,,2[A2C2F2]A,,2[A2C2E2]|
%
[V:1] "Bm"dBAF "Em"EDEF|"D"Adfa "Em"bgeg|"D"fa (3a^ga "A7"=gece|"A"(3ege "G"d2 "D"d2 :|
[V:2] B,,2[F2B2D2]E,2[E2B2G2]|D,2[A2D2F2]E,2[E2B2G2]|D,2[A2D2F2]A,,2[A2C2E2]|\
[A,2C2E2][G,2B,2D2][D,2F,2A,2] :|
%%%%%%tune repeat
[V:1] AG|"D"FDFA "G"GFGE|"D"DFAd "Bm"fedB|"D"AFdF "Bm7"AFBF|"D"AFDF "A7"E2 AG|
[V:2] z2|D,2[A2D2F2]G,,2[G2B2D2]|D,2[A2D2F2]B,,2[F2B2D2]|D,2[A2D2F2]B,,2[F2B2D2]|\
D,2[A2D2F2]A,,2[G2C2E2]|
%
[V:1] "D"FDFA "G"GFGE|"D"DFAd fgfe|"D"dcdA "A"(3Bcd AG|"D"F2 "G"D2 "D"D2 :|
[V:2] D,2[A2D2F2]G,,2[G2B2D2]|D,2[A2D2F2]A,,2[A2D2F2]|\
D,2[A2D2F2]A,,2[G2C2E2]|[D,2F,2A,2][G,2B,2D2][D,2F,2A,2]:|
%
[V:1] zA|"Bm"DBAF "Em"EDEF|"D"Afed "Bm"BABc|"D"df (3fef "Bm"afbf|"F#m"afec "A"A2 ce|
[V:2] z2|B,,2[F2B2D2]E,2[E2B2G2]|D,2[A2D2F2]B,,2[F2B2D2]|D,2[A2D2F2]B,,2[F2B2D2]|\
F,,2[A2C2F2]A,,2[A2C2E2]|
%
[V:1] "Bm"dBAF "Em"EDEF|"D"Adfa "Em"bgeg|"D"fa (3a^ga "A7"=gece|1 "A"(3ege "G"d2 "D"d2 :|2\
"A"(3ege "G"d2 "D"d2-|d4 z4 ||
[V:2] B,,2[F2B2D2]E,2[E2B2G2]|D,2[A2D2F2]E,2[E2B2G2]|D,2[A2D2F2]A,,2[A2C2E2]|1\
[A,2C2E2][G,2B,2D2][D,2F,2A,2] :|2 [A,2C2E2][G,2B,2D2] D,2-|D,4 z4 ||
%%%%%%%%%%%%%%%%%%%%%%%%%%%%%%%%%%%%%%%%%%%
